Hatter-kde/actions/16/filename-filetype-amarok.svg

<?xml version="1.0" encoding="UTF-8"?>
<svg viewBox="0 0 16 16" xmlns="http://www.w3.org/2000/svg">
 <defs id="defs3051">
  <style id="current-color-scheme" type="text/css">.ColorScheme-Text {
        color:#363636;
      }</style>
 </defs>
 <path class="ColorScheme-Text" d="m5 2v1 7.2812c-0.29454-0.17076-0.63503-0.28125-1-0.28125-1.1046 0-2 0.89544-2 2s0.89543 2 2 2 2-0.89544 2-2v-7h7v4.2812c-0.29454-0.17076-0.63504-0.28125-1-0.28125-1.1046 0-2 0.89544-2 2s0.89543 2 2 2 2-0.89544 2-2v-8-1h-9zm1 1h7v1h-7v-1z" fill="currentColor"/>
</svg>

<svg xmlns="http://www.w3.org/2000/svg" viewBox="0 0 16 16">
  <defs id="defs3051">
    <style type="text/css" id="current-color-scheme">
      .ColorScheme-Text {
        color:#363636;
      }
      </style>
  </defs>
 <path style="fill:currentColor;fill-opacity:1;stroke:none" 
     d="M 5 2 L 5 3 L 5 10.28125 C 4.70546 10.11049 4.36497 10 4 10 C 2.89543 10 2 10.89544 2 12 C 2 13.10456 2.89543 14 4 14 C 5.10457 14 6 13.10456 6 12 L 6 5 L 13 5 L 13 9.28125 C 12.70546 9.11049 12.36496 9 12 9 C 10.89543 9 10 9.89544 10 11 C 10 12.10456 10.89543 13 12 13 C 13.10457 13 14 12.10456 14 11 L 14 3 L 14 2 L 5 2 z M 6 3 L 13 3 L 13 4 L 6 4 L 6 3 z "
     class="ColorScheme-Text"
     />
</svg>
